!!!SOCIAL_FUNCTION:	songs of war
!!!PDT:	1913
!!!OTL: No_21_Arrow_Song.krn
!!!REG: Great_Lakes
!!!LANG: Non-Tone
!!!LING_GROUP: Algonquin
**kern	**kern
*staff2	*staff1
*clefF4	*clefF4
*k[f#c#g#d#a#]	*k[f#c#g#d#a#]
*M2/4	*M2/4
8.r	32r
.	32d#\LLK
.	16.d#\
.	32d#\JJk
=1	=1
8GG#/L	8d#\L
8GG#/J	24c#\K
.	12B\J
8GG#/L	16.B\LL
.	32d#\K
8GG#/J	16.d#\
.	32d#\JJk
=2	=2
8GG#/L	12c#\L
.	12G#\
8GG#/J	.
.	12G#\J
8GG#/L	8G#\L
8GG#/J	16G#\L
.	16F#\JJ
=3	=3
2r	4D#\
.	8D#\L
.	8D#\J
=4||	=4||
*M3/4	*M3/4
2.r	16G#\LL
.	16G#\J
.	8G#\J
.	16G#\LL
.	16G#\J
.	8G#\J
.	16.G#\LL
.	32F#\K
.	16.F#\
.	32G#\JJk
=5	=5
2.r	12G#\L
.	12G#\
.	12G#\J
.	(4F#\
.	16.F#\LL)
.	32G#\K
.	16.G#\
.	32G#\JJk
=6||	=6||
*M2/4	*M2/4
2r	12G#\L
.	12G#\
.	12F#\J
.	4D#\
=7	=7
2r	12G#\L
.	12G#\
.	12F#\J
.	4F#\
=8	=8
2r	8F#\L
.	8F#\J
.	4r
==	==
*-	*-
